Simply-Purple-Circles/scalable/mimes/application-x-rpm.svg

<svg xmlns="http://www.w3.org/2000/svg" width="48" height="48" viewBox="0 0 12.7 12.7"><g fill="#963996"><path d="M1.215.856L.142 3.66h6.04V.856H1.215zm5.174 0V3.66h6.115L11.402.856H6.39zM.194 3.893v6.31c0 .636.246 1.181.737 1.633.491.453 1.083.679 1.775.679H9.96c.692 0 1.283-.226 1.775-.679.49-.452.736-.997.736-1.634v-6.31h-1.116v6.31c0 .354-.136.656-.41.908a1.403 1.403 0 0 1-.985.377H2.706c-.384 0-.712-.126-.986-.377a1.19 1.19 0 0 1-.41-.908v-6.31H.195zm5.944.9c-1.786 0-3.426.65-4.163 1.652-.248.337-.427.765-.427 1.023a.51.51 0 0 0 .015.173c.008 0 .329-.056.712-.125.384-.068.71-.125.724-.125.015 0 .026-.163.025-.362-.002-.286.024-.415.12-.612.571-1.167 2.76-1.76 4.426-1.2l.35.118.217-.268-.209-.064c-.39-.12-1.156-.21-1.79-.21zm.012 1.913a.316.316 0 0 0-.058.014.9.9 0 0 1-.272.032l-.15-.008.15.056c.083.03.187.087.233.126.061.053.107.059.175.02.07-.04.662.05 2.416.365 2.446.44 2.547.456 2.47.388-.026-.024-.384-.101-.796-.173-3.762-.653-3.997-.698-4.05-.77-.03-.041-.065-.057-.118-.05zm-2.403 1.17v2.426l.312-.034c.523-.058.538-.065.538-.273v-.183l.352-.055c.435-.069.954-.317 1.121-.537.094-.123.125-.225.125-.406 0-.219-.02-.26-.214-.447-.316-.302-.729-.424-1.568-.462l-.666-.03zm3.048.006V9.79h.849V8.09h.345c.268 0 .351.017.375.079.017.043.03.425.03.85v.77h.8V8.086l.724.03.014.837.014.837h.847V8.086l-.188-.083c-.16-.071-.448-.086-1.999-.102l-1.811-.02zm-4.497.027l-.775.007-.014.937-.013.937h.852V8.253l.144-.029a.85.85 0 0 1 .325.021c.157.044.21.034.392-.075l.21-.125-.173-.072c-.128-.053-.377-.069-.948-.064zm2.299.175l.112.035c.158.049.357.196.508.376.248.295.139.696-.258.948-.128.08-.261.147-.297.147-.051 0-.065-.167-.065-.753v-.753z"/><path d="M8.118 5.07l-.205.263c.575.242 1.02.623 1.229 1.04.12.24.14.647.13.781l-.018.236c.566.101 1.277.228 1.555.274 0 0-.001-.08-.04-.315-.058-.342-.35-.872-.656-1.182-.524-.532-1.082-.859-1.995-1.098z" opacity=".75"/></g></svg>

<?xml version="1.0" encoding="UTF-8" standalone="no"?>
<svg
   xmlns:dc="http://purl.org/dc/elements/1.1/"
   xmlns:cc="http://creativecommons.org/ns#"
   xmlns:rdf="http://www.w3.org/1999/02/22-rdf-syntax-ns#"
   xmlns:svg="http://www.w3.org/2000/svg"
   xmlns="http://www.w3.org/2000/svg"
   xmlns:sodipodi="http://sodipodi.sourceforge.net/DTD/sodipodi-0.dtd"
   xmlns:inkscape="http://www.inkscape.org/namespaces/inkscape"
   width="48"
   height="48"
   viewBox="0 0 12.7 12.7"
   version="1.1"
   id="svg8"
   sodipodi:docname="application-x-rpm.svg"
   inkscape:version="0.92.4 (5da689c313, 2019-01-14)">
  <metadata
     id="metadata14">
    <rdf:RDF>
      <cc:Work
         rdf:about="">
        <dc:format>image/svg+xml</dc:format>
        <dc:type
           rdf:resource="http://purl.org/dc/dcmitype/StillImage" />
        <dc:title></dc:title>
      </cc:Work>
    </rdf:RDF>
  </metadata>
  <defs
     id="defs12" />
  <sodipodi:namedview
     pagecolor="#ffffff"
     bordercolor="#666666"
     borderopacity="1"
     objecttolerance="10"
     gridtolerance="10"
     guidetolerance="10"
     inkscape:pageopacity="0"
     inkscape:pageshadow="2"
     inkscape:window-width="1087"
     inkscape:window-height="480"
     id="namedview10"
     showgrid="false"
     inkscape:zoom="4.9166667"
     inkscape:cx="2.1355932"
     inkscape:cy="24"
     inkscape:window-x="0"
     inkscape:window-y="25"
     inkscape:window-maximized="0"
     inkscape:current-layer="svg8" />
  <g
     id="g6"
     style="fill:#963996">
    <path
       d="M 1.215,0.856 0.142,3.66 h 6.04 V 0.856 Z m 5.174,0 V 3.66 h 6.115 L 11.402,0.856 H 6.39 Z M 0.194,3.893 v 6.31 c 0,0.636 0.246,1.181 0.737,1.633 0.491,0.453 1.083,0.679 1.775,0.679 H 9.96 c 0.692,0 1.283,-0.226 1.775,-0.679 0.49,-0.452 0.736,-0.997 0.736,-1.634 v -6.31 h -1.116 v 6.31 c 0,0.354 -0.136,0.656 -0.41,0.908 A 1.403,1.403 0 0 1 9.96,11.487 H 2.706 C 2.322,11.487 1.994,11.361 1.72,11.11 A 1.19,1.19 0 0 1 1.31,10.202 V 3.892 H 0.195 Z m 5.944,0.9 C 4.352,4.793 2.712,5.443 1.975,6.445 1.727,6.782 1.548,7.21 1.548,7.468 A 0.51,0.51 0 0 0 1.563,7.641 C 1.571,7.641 1.892,7.585 2.275,7.516 2.659,7.448 2.985,7.391 2.999,7.391 3.014,7.391 3.025,7.228 3.024,7.029 3.022,6.743 3.048,6.614 3.144,6.417 3.715,5.25 5.904,4.657 7.57,5.217 L 7.92,5.335 8.137,5.067 7.928,5.003 C 7.538,4.883 6.772,4.793 6.138,4.793 Z M 6.15,6.706 A 0.316,0.316 0 0 0 6.092,6.72 0.9,0.9 0 0 1 5.82,6.752 L 5.67,6.744 5.82,6.8 c 0.083,0.03 0.187,0.087 0.233,0.126 0.061,0.053 0.107,0.059 0.175,0.02 0.07,-0.04 0.662,0.05 2.416,0.365 2.446,0.44 2.547,0.456 2.47,0.388 C 11.088,7.675 10.73,7.598 10.318,7.526 6.556,6.873 6.321,6.828 6.268,6.756 6.238,6.715 6.203,6.699 6.15,6.706 Z m -2.403,1.17 v 2.426 L 4.059,10.268 C 4.582,10.21 4.597,10.203 4.597,9.995 V 9.812 L 4.949,9.757 C 5.384,9.688 5.903,9.44 6.07,9.22 6.164,9.097 6.195,8.995 6.195,8.814 6.195,8.595 6.175,8.554 5.981,8.367 5.665,8.065 5.252,7.943 4.413,7.905 L 3.747,7.875 Z M 6.795,7.882 V 9.79 h 0.849 v -1.7 h 0.345 c 0.268,0 0.351,0.017 0.375,0.079 0.017,0.043 0.03,0.425 0.03,0.85 v 0.77 h 0.8 V 8.086 l 0.724,0.03 0.014,0.837 0.014,0.837 h 0.847 V 8.086 L 10.605,8.003 C 10.445,7.932 10.157,7.917 8.606,7.901 L 6.795,7.881 Z M 2.298,7.909 1.523,7.916 1.509,8.853 1.496,9.79 H 2.348 V 8.253 L 2.492,8.224 A 0.85,0.85 0 0 1 2.817,8.245 C 2.974,8.289 3.027,8.279 3.209,8.17 L 3.419,8.045 3.246,7.973 C 3.118,7.92 2.869,7.904 2.298,7.909 Z M 4.597,8.084 4.709,8.119 C 4.867,8.168 5.066,8.315 5.217,8.495 5.465,8.79 5.356,9.191 4.959,9.443 4.831,9.523 4.698,9.59 4.662,9.59 4.611,9.59 4.597,9.423 4.597,8.837 Z"
       id="path2"
       inkscape:connector-curvature="0" />
    <path
       d="M 8.118,5.07 7.913,5.333 c 0.575,0.242 1.02,0.623 1.229,1.04 0.12,0.24 0.14,0.647 0.13,0.781 L 9.254,7.39 c 0.566,0.101 1.277,0.228 1.555,0.274 0,0 -10e-4,-0.08 -0.04,-0.315 C 10.711,7.007 10.419,6.477 10.113,6.167 9.589,5.635 9.031,5.308 8.118,5.069 Z"
       id="path4"
       inkscape:connector-curvature="0"
       style="opacity:0.75" />
  </g>
</svg>
